img/mission/65.svg

<svg xmlns="http://www.w3.org/2000/svg" xmlns:xlink="http://www.w3.org/1999/xlink" width="1080" zoomAndPan="magnify" viewBox="0 0 810 809.999993" height="1080" preserveAspectRatio="xMidYMid meet" version="1.0"><defs><clipPath id="id1"><path d="M 195.472656 228.613281 L 579.472656 228.613281 L 579.472656 612.613281 L 195.472656 612.613281 Z M 195.472656 228.613281 " clip-rule="nonzero"/></clipPath><clipPath id="id2"><path d="M 298 343 L 477 343 L 477 540.722656 L 298 540.722656 Z M 298 343 " clip-rule="nonzero"/></clipPath><clipPath id="id3"><path d="M 260.769531 300.722656 L 514.269531 300.722656 L 514.269531 428 L 260.769531 428 Z M 260.769531 300.722656 " clip-rule="nonzero"/></clipPath></defs><g clip-path="url(#id1)"><path fill="#ad98d4" d="M 387.472656 228.613281 C 281.433594 228.613281 195.472656 314.574219 195.472656 420.613281 C 195.472656 526.652344 281.433594 612.613281 387.472656 612.613281 C 493.511719 612.613281 579.472656 526.652344 579.472656 420.613281 C 579.472656 314.574219 493.511719 228.613281 387.472656 228.613281 " fill-opacity="1" fill-rule="nonzero"/></g><g clip-path="url(#id2)"><path fill="#ffffff" d="M 476.515625 422.71875 Z M 476.515625 422.71875 L 387.546875 343.886719 L 298.523438 422.753906 L 298.523438 535.445312 C 298.523438 538.355469 300.875 540.691406 303.785156 540.691406 L 359.417969 540.691406 L 359.417969 491.28125 C 359.417969 488.371094 361.753906 486.015625 364.660156 486.015625 L 410.375 486.015625 C 413.285156 486.015625 415.617188 488.371094 415.617188 491.28125 L 415.617188 540.691406 L 471.269531 540.691406 C 474.179688 540.691406 476.511719 538.355469 476.511719 535.445312 L 476.511719 422.714844 Z M 298.523438 422.753906 Z M 298.523438 422.753906 " fill-opacity="1" fill-rule="nonzero"/></g><g clip-path="url(#id3)"><path fill="#ffffff" d="M 387.027344 300.742188 L 260.769531 412.59375 L 274.070312 427.605469 L 387.546875 327.074219 L 500.996094 427.605469 L 514.269531 412.59375 L 388.039062 300.742188 L 387.546875 301.3125 L 387.03125 300.742188 Z M 387.027344 300.742188 " fill-opacity="1" fill-rule="nonzero"/></g><path fill="#ffffff" d="M 298.523438 316.84375 L 330.53125 316.84375 L 330.253906 335.8125 L 298.523438 364.488281 Z M 298.523438 316.84375 " fill-opacity="1" fill-rule="nonzero"/></svg>

<?xml version="1.0" encoding="UTF-8" standalone="no"?>
<svg
   width="512"
   zoomAndPan="magnify"
   viewBox="0 0 384 384"
   height="512"
   preserveAspectRatio="xMidYMid meet"
   version="1.0"
   id="svg373"
   sodipodi:docname="65.svg"
   inkscape:version="1.1 (c68e22c387, 2021-05-23)"
   xmlns:inkscape="http://www.inkscape.org/namespaces/inkscape"
   xmlns:sodipodi="http://sodipodi.sourceforge.net/DTD/sodipodi-0.dtd"
   xmlns="http://www.w3.org/2000/svg"
   xmlns:svg="http://www.w3.org/2000/svg">
  <sodipodi:namedview
     id="namedview375"
     pagecolor="#ffffff"
     bordercolor="#666666"
     borderopacity="1.0"
     inkscape:pageshadow="2"
     inkscape:pageopacity="0.0"
     inkscape:pagecheckerboard="0"
     showgrid="false"
     inkscape:zoom="0.76111111"
     inkscape:cx="279.19708"
     inkscape:cy="235.18248"
     inkscape:window-width="1920"
     inkscape:window-height="1002"
     inkscape:window-x="-8"
     inkscape:window-y="-8"
     inkscape:window-maximized="1"
     inkscape:current-layer="svg373" />
  <defs
     id="defs357">
    <clipPath
       id="id1">
      <path
         d="m 195.47266,228.61328 h 384 v 384 h -384 z m 0,0"
         clip-rule="nonzero"
         id="path348" />
    </clipPath>
    <clipPath
       id="id2">
      <path
         d="M 298,343 H 477 V 540.72266 H 298 Z m 0,0"
         clip-rule="nonzero"
         id="path351" />
    </clipPath>
    <clipPath
       id="id3">
      <path
         d="m 260.76953,300.72266 h 253.5 V 428 h -253.5 z m 0,0"
         clip-rule="nonzero"
         id="path354" />
    </clipPath>
  </defs>
  <g
     clip-path="url(#id1)"
     id="g361"
     transform="translate(-195.47266,-228.61328)">
    <path
       fill="#ad98d4"
       d="m 387.47266,228.61328 c -106.03907,0 -192,85.96094 -192,192 0,106.03906 85.96093,192 192,192 106.03906,0 192,-85.96094 192,-192 0,-106.03906 -85.96094,-192 -192,-192"
       fill-opacity="1"
       fill-rule="nonzero"
       id="path359" />
  </g>
  <g
     clip-path="url(#id2)"
     id="g365"
     transform="translate(-195.47266,-228.61328)">
    <path
       fill="#ffffff"
       d="m 476.51562,422.71875 z m 0,0 -88.96875,-78.83203 -89.02343,78.86719 v 112.6914 c 0,2.91016 2.35156,5.2461 5.26172,5.2461 h 55.63281 v -49.41016 c 0,-2.91016 2.33594,-5.26563 5.24219,-5.26563 H 410.375 c 2.91016,0 5.24219,2.35547 5.24219,5.26563 v 49.41016 h 55.65234 c 2.91016,0 5.24219,-2.33594 5.24219,-5.2461 V 422.71484 Z m -177.99218,0.0352 z m 0,0"
       fill-opacity="1"
       fill-rule="nonzero"
       id="path363" />
  </g>
  <g
     clip-path="url(#id3)"
     id="g369"
     transform="translate(-195.47266,-228.61328)">
    <path
       fill="#ffffff"
       d="m 387.02734,300.74219 -126.25781,111.85156 13.30078,15.01172 113.47656,-100.53125 113.44922,100.53125 13.27344,-15.01172 -126.23047,-111.85156 -0.49219,0.57031 -0.51562,-0.57031 z m 0,0"
       fill-opacity="1"
       fill-rule="nonzero"
       id="path367" />
  </g>
  <path
     fill="#ffffff"
     d="m 103.05078,88.230469 h 32.00781 l -0.27734,18.968751 -31.73047,28.67578 z m 0,0"
     fill-opacity="1"
     fill-rule="nonzero"
     id="path371" />
</svg>
